svgs/light/square-j.svg

<svg xmlns="http://www.w3.org/2000/svg" viewBox="0 0 448 512"><!-- Font Awesome Pro 6.0.0-alpha2 by @fontawesome - https://fontawesome.com License - https://fontawesome.com/license (Commercial License) --><path d="M384 32H64C28.654 32 0 60.654 0 96V416C0 451.346 28.654 480 64 480H384C419.346 480 448 451.346 448 416V96C448 60.654 419.346 32 384 32ZM416 416C416 433.645 401.645 448 384 448H64C46.355 448 32 433.645 32 416V96C32 78.355 46.355 64 64 64H384C401.645 64 416 78.355 416 96V416ZM304 128C295.156 128 288 135.156 288 144V293.328C288 325.688 259.281 352 224 352S160 325.688 160 293.328V272C160 263.156 152.844 256 144 256S128 263.156 128 272V293.328C128 343.328 171.062 384 224 384S320 343.328 320 293.328V144C320 135.156 312.844 128 304 128Z"/></svg>

<svg xmlns="http://www.w3.org/2000/svg" viewBox="0 0 448 512"><!--! Font Awesome Pro 6.3.0 by @fontawesome - https://fontawesome.com License - https://fontawesome.com/license (Commercial License) Copyright 2023 Fonticons, Inc. --><path d="M384 32H64C28.65 32 0 60.65 0 96v320c0 35.35 28.65 64 64 64h320c35.35 0 64-28.65 64-64V96C448 60.65 419.3 32 384 32zM416 416c0 17.64-14.36 32-32 32H64c-17.64 0-32-14.36-32-32V96c0-17.64 14.36-32 32-32h320c17.64 0 32 14.36 32 32V416zM304 128C295.2 128 288 135.2 288 144v149.3C288 325.7 259.3 352 224 352s-64-26.31-64-58.67V272C160 263.2 152.8 256 144 256S128 263.2 128 272v21.33C128 343.3 171.1 384 224 384s96-40.67 96-90.67V144C320 135.2 312.8 128 304 128z"/></svg>
